lib/svgs/douban.svg

<?xml version="1.0" encoding="UTF-8" standalone="no"?>
<svg width="20px" height="20px" viewBox="0 0 20 20" version="1.1" xmlns="http://www.w3.org/2000/svg" xmlns:xlink="http://www.w3.org/1999/xlink">
    <defs></defs>
    <g id="Icons" stroke="none" stroke-width="1" fill="none" fill-rule="evenodd">
        <g id="Web" transform="translate(-97.000000, -988.000000)" fill="#000000">
            <g id="brand/douban" transform="translate(97.000000, 988.000000)">
                <path d="M4.20985651,5.91550033 L4.20985651,12.4680566 L5.76542846,12.4680566 L6.60080909,15.3546043 L3,15.3546043 L3,16.9999852 L17,16.9999852 L17,15.3546043 L13.3991909,15.3546043 L14.2345715,12.4680566 L15.8189039,12.4680566 L15.8189039,5.91550033 L4.20985651,5.91550033 L4.20985651,5.91550033 M7.3786688,12.4680566 L12.6213312,12.4680566 L11.7859506,15.3257846 L8.24280989,15.3257846 M6.19757274,10.8226757 L6.19757274,7.56088127 L13.8024273,7.56088127 L13.8024273,10.8226757 M3.37447589,4.67418582 L16.6255241,4.67418582 L16.6255241,3 L3.37447589,3 L3.37447589,4.67418582 L3.37447589,4.67418582" id="Shape"></path>
            </g>
        </g>
    </g>
</svg>

<svg xmlns="http://www.w3.org/2000/svg" viewBox="0 0 20 20">
    <path fill="#000" fill-rule="evenodd" d="M4.21 5.916v6.552h1.555l.836 2.887H3V17h14v-1.645h-3.6l.835-2.887h1.584V5.916H4.209m3.17 6.552h5.242l-.835 2.858H8.243m-2.045-4.503V7.56h7.604v3.262M3.374 4.674h13.252V3H3.374v1.674"/>
</svg>
